!!!COM: Robert Schumann
!!!CNT: Deutscher
!!!TXO: Deutsche 
!!!OTL: Im Rhein, im heiligen Strome.
!!!OPR: Dichterliebe
!!!OPS: Opus 48
!!!ONM: No. 6
!!!LYR: Heine
!!!ENC: Brian Bice
!!!YOR: Sa2mtliche Lieder, vol. 1, C.F. Peters
!!!ODT: 1840/
!!NB: Vocal melody and text only encoded.
**kern	**silbe
*clefG2	*
*k[f#]	*
*M2/2	*
=0	=0
2r	.
4.r	.
{8e	{Im
=1	=1
2..e	Rhein,
8e	im
=2	=2
2f#	hei-
4.f#	-li-
8f#	-gen
=3	=3
1g	Stro-
=4	=4
4g}	-me,}
4r	.
{2cc	{da
=5	=5
2b	spie-
2a	-gelt
=6	=6
2g	sich
4f#	in
4f#	den
=7	=7
1e}	Well'n,}
=8	=8
2r	.
{2e	{mit
=9	=9
2..e	sei-
8e	-nem
=10	=10
2.f#	gro-
4f#	-ssen
=11	=11
1g	Do-
=12	=12
4g}	-me,}
4r	.
{2cc	{das
=13	=13
2b	gro-
2a	-sse
=14	=14
2g	hei-
4fn	-li-
4fn	-ge
=15	=15
1e}	Co2ln.}
=16	=16
2r	.
4r	.
{4e	{Im
=17	=17
2..cc	Dom
8cc	da
=18	=18
2..dd	steht
8cc	ein
=19	=19
(4.b	Bild-
8dd)	|
4.cc}	-nis,}
{8b	{auf
=20	=20
4a	gol-
8cc	-de-
8cc	-nem
4b	Le-
8a	-der
8a	ge-
=21	=21
1g}	-malt;}
=22	=22
2r	.
4r	.
8r	.
{8a	{in
=23	=23
2..b	mei-
8b	-nes
=24	=24
2..cc	Le-
(16dd	-bens
16ee)	|
=25	=25
(4ee.	Wild-
8dd)	|
4cc}	-nis}
{4b	{hat's
=26	=26
4a	freund-
8b	-lich
8b	hin-
4.cc	-ein
8a	ge-
=27	=27
4b}	-strahlt.}
4r	.
2r	.
=31	=31
4r	.
8r	.
{8g	{Es
4.cc	schwe-
8b	-ben
=32	=32
(4.a	Blu-
8cc)	|
4.b	-men
8a	und
=33	=33
(4.g#	Eng-
8b)	|
4.a}	-lein}
{8cc	{um
=34	=34
4.dd	uns-
(16ee	-re
16ffn)	|
4.ee	lie-
8dd	-be
=35	=35
4cc}	Frau;}
4r	.
4r	.
8r	.
{8ee	{die
=36	=36
2cc	Au-
4.a	-gen,
8a	die
=37	=37
2fn	Lip-
4d	-pen,
8r	.
8ffn	die
=38	=38
2dd	Lip-
4.b}	-pen,}
{8b	{die
=39	=39
2g	Wa2ng-
4e	-lein,
8r	.
8fn	die
=40	=40
(4.g	glei-
8g#)	|
4a	-chen
4gn	der
=41	=41
(4f#	Lieb-
4g)	|
4.f#	-sten
8e	ge-
=42	=42
2.d#}	-nau.}
4r	.
*-	*-
